X:1081
T:Roll Me Over 
C:Joe Buchanan's Scottish Tome - Page 466.2
I:466 2
R:Folk
Z:Carl Allison
L:1/8
M:4/4
K:G
"D"D2 | "G"G>G G>G G2 F>G | "Am"A>B A>G E2 A>G | "D7"F>F F>F EE ((3EEE) | "G"D6 D>D |
"G"GG G>G G2 F>G | "Am"AB A>G E2 A>G | "D7"F>F F>E D>D ((3DEF) | "G"G6 d>d |
"G"d4 B2 G>G | "C"G4 c2 c>c | "G"B>B B>B "D"A>A ((3AAA) | "G"G6 :|

